/* XPM */
static char *_[] = {
/* columns rows colors chars-per-pixel */
"14 14 44 1 ",
"  c None",
". c #0A0A0A",
"X c #242424",
"o c #272727",
"O c #2A2A2A",
"+ c #2B2B2B",
"@ c #494949",
"# c #555555",
"$ c #666666",
"% c #808080",
"& c #818181",
"* c #828282",
"= c #888888",
"- c #919191",
"; c #A9A9A9",
": c #AAAAAA",
"> c #ABABAB",
", c #ACACAC",
"< c #ADADAD",
"1 c #B2B2B2",
"2 c #BBBBBB",
"3 c #C3C3C3",
"4 c #C4C4C4",
"5 c #C5C5C5",
"6 c #CACACA",
"7 c #D4D4D4",
"8 c #D5D5D5",
"9 c #D9D9D9",
"0 c #DEDEDE",
"q c #E0E0E0",
"w c #E2E2E2",
"e c #E3E3E3",
"r c #E6E6E6",
"t c #E7E7E7",
"y c #E8E8E8",
"u c #E9E9E9",
"i c #ECECEC",
"p c #EEEEEE",
"a c #F1F1F1",
"s c #F2F2F2",
"d c #F3F3F3",
"f c #FCFCFC",
"g c #FDFDFD",
"h c #FFFFFF",
/* pixels */
"              ",
"    :7ty91    ",
"   7hhhhhh0&  ",
"  7hhd:#3hhq  ",
" :hh6@X.,hhh2 ",
" 7hh4=3O,hhhq ",
" thhhhyO,hhhd&",
" yhhhhtO,hhhd&",
" 9hhhhtO,hhht ",
" 1hhhhtO,hhh3 ",
"  0hhhtX:hhy  ",
"  &qhhi$4hy-  ",
"    2qdiq3    ",
"      &&      "
};
