/* XPM */
static char *_0[] = {
/* columns rows colors chars-per-pixel */
"14 14 79 1 ",
"  c None",
". c #0C0C0C",
"X c #121212",
"o c #1D1D1D",
"O c #202020",
"+ c #232323",
"@ c #242424",
"# c #262626",
"$ c #303030",
"% c #313131",
"& c #353535",
"* c #373737",
"= c #3D3D3D",
"- c #3E3E3E",
"; c #414141",
": c #424242",
"> c #464646",
", c #494949",
"< c #4D4D4D",
"1 c #4E4E4E",
"2 c #505050",
"3 c #535353",
"4 c #545454",
"5 c #555555",
"6 c #565656",
"7 c #595959",
"8 c #5D5D5D",
"9 c #626262",
"0 c #636363",
"q c #656565",
"w c #666666",
"e c #676767",
"r c #686868",
"t c #696969",
"y c #747474",
"u c #757575",
"i c #797979",
"p c #808080",
"a c #818181",
"s c #828282",
"d c #838383",
"f c #858585",
"g c #919191",
"h c #939393",
"j c #949494",
"k c #959595",
"l c #A1A1A1",
"z c #A2A2A2",
"x c #A4A4A4",
"c c #A7A7A7",
"v c #ABABAB",
"b c #AEAEAE",
"n c #B1B1B1",
"m c #B2B2B2",
"M c #B4B4B4",
"N c #B7B7B7",
"B c #C5C5C5",
"V c #C8C8C8",
"C c #CCCCCC",
"Z c #D2D2D2",
"A c #D4D4D4",
"S c #D5D5D5",
"D c #D9D9D9",
"F c #DDDDDD",
"G c #E0E0E0",
"H c #E2E2E2",
"J c #E5E5E5",
"K c #E7E7E7",
"L c #E8E8E8",
"P c #EBEBEB",
"I c #F1F1F1",
"U c #F4F4F4",
"Y c #F6F6F6",
"T c #F7F7F7",
"R c #F9F9F9",
"E c #FAFAFA",
"W c #FCFCFC",
"Q c #FEFEFE",
"! c white",
/* pixels */
"              ",
"    vSKLDN    ",
"   ZR!!!RLSf  ",
"  j9g!!V<%<z  ",
" X#.e!K&2m4%j ",
" tB4e!zOD!F#i ",
" L!7e!y;R!R>8p",
" K!7e!t<!!!44p",
" D!7e!y-U!R>2 ",
" m!7e!xoS!D#2 ",
"  F79!K&,x2o  ",
"  peg!!C4&-;  ",
"    NHIUHb    ",
"      pp      "
};
