/* XPM */
static char *_[] = {
/* columns rows colors chars-per-pixel */
"14 14 64 1 ",
"  c None",
". c #0B0B0B",
"X c #131313",
"o c #1C1C1C",
"O c #202020",
"+ c #242424",
"@ c #2F2F2F",
"# c #313131",
"$ c #343434",
"% c #353535",
"& c #444444",
"* c #464646",
"= c #484848",
"- c #505050",
"; c #717171",
": c #747474",
"> c #787878",
", c #797979",
"< c #7C7C7C",
"1 c #808080",
"2 c #818181",
"3 c #828282",
"4 c #878787",
"5 c #8A8A8A",
"6 c #919191",
"7 c #929292",
"8 c #949494",
"9 c #959595",
"0 c #989898",
"q c #9E9E9E",
"w c #A1A1A1",
"e c #AAAAAA",
"r c #ACACAC",
"t c #AEAEAE",
"y c #B0B0B0",
"u c #B2B2B2",
"i c #B6B6B6",
"p c #B9B9B9",
"a c #BBBBBB",
"s c #BDBDBD",
"d c #C3C3C3",
"f c #D4D4D4",
"g c #D5D5D5",
"h c #D9D9D9",
"j c #DBDBDB",
"k c #DEDEDE",
"l c #DFDFDF",
"z c #E0E0E0",
"x c #E2E2E2",
"c c #E6E6E6",
"v c #E7E7E7",
"b c #E8E8E8",
"n c #E9E9E9",
"m c #EAEAEA",
"M c #EBEBEB",
"N c #EDEDED",
"B c #F1F1F1",
"V c #F2F2F2",
"C c #F4F4F4",
"Z c #F5F5F5",
"A c #F6F6F6",
"S c #FCFCFC",
"D c #FEFEFE",
"F c #FFFFFF",
/* pixels */
"              ",
"    efnnhy    ",
"   fFFNBFFk2  ",
"  fFp-#%5ZFx  ",
" eFF>:y<XeFFp ",
" fFFZFFZ%>FFx ",
" vFFFFFk+0FFB2",
" vFFFFF;@xFFB2",
" hFFFF9otFFFv ",
" yFFFqO0FFFFd ",
"  kFw.%66tFn  ",
"  2k4*=**;k6  ",
"    ihnnks    ",
"      22      "
};
