/* XPM */
static char *_[] = {
/* columns rows colors chars-per-pixel */
"14 14 72 1 ",
"  c None",
". c #101010",
"X c #1A1A1A",
"o c #252525",
"O c #272727",
"+ c #282828",
"@ c #2A2A2A",
"# c #2F2F2F",
"$ c #323232",
"% c #363636",
"& c #383838",
"* c #454545",
"= c #474747",
"- c #484848",
"; c #494949",
": c #4B4B4B",
"> c #606060",
", c #6F6F6F",
"< c #767676",
"1 c #777777",
"2 c #808080",
"3 c #818181",
"4 c #828282",
"5 c #838383",
"6 c #868686",
"7 c #878787",
"8 c #888888",
"9 c #8A8A8A",
"0 c #919191",
"q c #949494",
"w c #959595",
"e c #9A9A9A",
"r c #9F9F9F",
"t c #A3A3A3",
"y c #A6A6A6",
"u c #AAAAAA",
"i c #ABABAB",
"p c #B2B2B2",
"a c #B4B4B4",
"s c #B8B8B8",
"d c #BBBBBB",
"f c #BEBEBE",
"g c #C3C3C3",
"h c #C4C4C4",
"j c #CACACA",
"k c #CCCCCC",
"l c #D4D4D4",
"z c #D5D5D5",
"x c #D8D8D8",
"c c #D9D9D9",
"v c #DBDBDB",
"b c #DEDEDE",
"n c #DFDFDF",
"m c #E0E0E0",
"M c #E2E2E2",
"N c #E4E4E4",
"B c #E6E6E6",
"V c #E7E7E7",
"C c #E8E8E8",
"Z c #E9E9E9",
"A c #EAEAEA",
"S c #ECECEC",
"D c #F1F1F1",
"F c #F2F2F2",
"G c #F3F3F3",
"H c #F4F4F4",
"J c #FAFAFA",
"K c #FBFBFB",
"L c #FCFCFC",
"P c #FDFDFD",
"I c #FEFEFE",
"U c #FFFFFF",
/* pixels */
"              ",
"    ilZZcp    ",
"   lUJSDUUn4  ",
"  lUt-$%7DUm  ",
" iUJ87a8XrUUd ",
" lUUUUUU=<UUm ",
" VUUUZg7@dUUD4",
" ZUUUi@.okUUD4",
" cUUUDmj-=HUV ",
" pUUUUUUeoVUg ",
"  nD,4yq#>JZ  ",
"  4cq-$&1VZ0  ",
"    fcnVVh    ",
"      44      "
};
