/* XPM */
static char *_[] = {
/* columns rows colors chars-per-pixel */
"14 14 62 1 ",
"  c None",
". c #0A0A0A",
"X c #151515",
"o c #191919",
"O c #1E1E1E",
"+ c #232323",
"@ c #242424",
"# c #272727",
"$ c #282828",
"% c #2B2B2B",
"& c #2F2F2F",
"* c #373737",
"= c #3E3E3E",
"- c #414141",
"; c #434343",
": c #4A4A4A",
"> c #4F4F4F",
", c #515151",
"< c #5C5C5C",
"1 c #6E6E6E",
"2 c #6F6F6F",
"3 c #808080",
"4 c #818181",
"5 c #828282",
"6 c #919191",
"7 c #979797",
"8 c #9E9E9E",
"9 c #A4A4A4",
"0 c #A7A7A7",
"q c #A8A8A8",
"w c #AAAAAA",
"e c #B2B2B2",
"r c #B3B3B3",
"t c #B7B7B7",
"y c #BBBBBB",
"u c #BDBDBD",
"i c #C0C0C0",
"p c #C1C1C1",
"a c #C3C3C3",
"s c #D4D4D4",
"d c #D5D5D5",
"f c #D6D6D6",
"g c #D9D9D9",
"h c #DADADA",
"j c #DEDEDE",
"k c #E0E0E0",
"l c #E2E2E2",
"z c #E3E3E3",
"x c #E6E6E6",
"c c #E7E7E7",
"v c #E8E8E8",
"b c #E9E9E9",
"n c #EBEBEB",
"m c #ECECEC",
"M c #F1F1F1",
"N c #F2F2F2",
"B c #F5F5F5",
"V c #F9F9F9",
"C c #FBFBFB",
"Z c #FDFDFD",
"A c #FEFEFE",
"S c #FFFFFF",
/* pixels */
"              ",
"    wscvgr    ",
"   sSSSSCSj4  ",
"  sSSSS7<vSk  ",
" wSSSSpXOkSSy ",
" sSSSc;*%kSSk ",
" cSSC1,8%kSSM4",
" vSS0&sr%vSSM4",
" gSs@:w1o6sSc ",
" rSt=;;%.*9Sp ",
"  jSBBC0+gSv  ",
"  4kSSSu>vv6  ",
"    ykMmsp    ",
"      44      "
};
