/* XPM */
static char *_[] = {
/* columns rows colors chars-per-pixel */
"14 14 73 1 ",
"  c None",
". c #111111",
"X c #191919",
"o c #1C1C1C",
"O c #2F2F2F",
"+ c #323232",
"@ c #393939",
"# c #3C3C3C",
"$ c #414141",
"% c #444444",
"& c #474747",
"* c #484848",
"= c #4A4A4A",
"- c #5F5F5F",
"; c #606060",
": c #666666",
"> c #6C6C6C",
", c #777777",
"< c #7B7B7B",
"1 c #7E7E7E",
"2 c #7F7F7F",
"3 c #808080",
"4 c #818181",
"5 c #828282",
"6 c #838383",
"7 c #868686",
"8 c #898989",
"9 c #8A8A8A",
"0 c #8D8D8D",
"q c #919191",
"w c #979797",
"e c #9B9B9B",
"r c #9C9C9C",
"t c #9E9E9E",
"y c #9F9F9F",
"u c #A6A6A6",
"i c #A9A9A9",
"p c #AAAAAA",
"a c #ABABAB",
"s c #ACACAC",
"d c #B2B2B2",
"f c #B5B5B5",
"g c #BBBBBB",
"h c #BEBEBE",
"j c #C3C3C3",
"k c #C4C4C4",
"l c #CACACA",
"z c #CDCDCD",
"x c #D4D4D4",
"c c #D5D5D5",
"v c #D9D9D9",
"b c #DBDBDB",
"n c #DEDEDE",
"m c #DFDFDF",
"M c #E0E0E0",
"N c #E2E2E2",
"B c #E6E6E6",
"V c #E7E7E7",
"C c #E8E8E8",
"Z c #E9E9E9",
"A c #EAEAEA",
"S c #F0F0F0",
"D c #F1F1F1",
"F c #F2F2F2",
"G c #F3F3F3",
"H c #F7F7F7",
"J c #F9F9F9",
"K c #FAFAFA",
"L c #FBFBFB",
"P c #FCFCFC",
"I c #FDFDFD",
"U c #FEFEFE",
"Y c #FFFFFF",
/* pixels */
"              ",
"    axVCvd    ",
"   xJJJJJJn4  ",
"  xYl*%%$yYN  ",
" aYYsX0yezYYg ",
" xYYyOFYYYYYN ",
" VYYw.:<hJYYF4",
" CYYf->%XyYYF4",
" vYYYYYH;@FYV ",
" dYYYYYY,+FYj ",
"  nY92a7o2YC  ",
"  4nu*+#9FCq  ",
"    hvnVVk    ",
"      44      "
};
