/* XPM */
static char *_[] = {
/* columns rows colors chars-per-pixel */
"14 14 75 1 ",
"  c None",
". c #1A1A1A",
"X c #1F1F1F",
"o c #252525",
"O c #2D2D2D",
"+ c #303030",
"@ c #313131",
"# c #323232",
"$ c #343434",
"% c #353535",
"& c #3D3D3D",
"* c #404040",
"= c #484848",
"- c #535353",
"; c #545454",
": c #5A5A5A",
"> c #5F5F5F",
", c #606060",
"< c #636363",
"1 c #6D6D6D",
"2 c #6F6F6F",
"3 c #707070",
"4 c #717171",
"5 c #737373",
"6 c #7C7C7C",
"7 c #7F7F7F",
"8 c #808080",
"9 c #818181",
"0 c #838383",
"q c #919191",
"w c #979797",
"e c #9B9B9B",
"r c #9C9C9C",
"t c #9F9F9F",
"y c #A5A5A5",
"u c #AAAAAA",
"i c #ADADAD",
"p c #AFAFAF",
"a c #B2B2B2",
"s c #B3B3B3",
"d c #BBBBBB",
"f c #BCBCBC",
"g c #C3C3C3",
"h c #C4C4C4",
"j c #C5C5C5",
"k c #D3D3D3",
"l c #D4D4D4",
"z c #D5D5D5",
"x c #D9D9D9",
"c c #DADADA",
"v c #DEDEDE",
"b c #DFDFDF",
"n c #E1E1E1",
"m c #E2E2E2",
"M c #E4E4E4",
"N c #E5E5E5",
"B c #E6E6E6",
"V c #E7E7E7",
"C c #E8E8E8",
"Z c #E9E9E9",
"A c #EAEAEA",
"S c #ECECEC",
"D c #EDEDED",
"F c #F0F0F0",
"G c #F1F1F1",
"H c #F2F2F2",
"J c #F6F6F6",
"K c #F8F8F8",
"L c #F9F9F9",
"P c #FAFAFA",
"I c #FBFBFB",
"U c #FCFCFC",
"Y c #FDFDFD",
"T c #FEFEFE",
"R c white",
/* pixels */
"              ",
"    ulVZxa    ",
"   lRRIDFRv9  ",
"  lRRh-@$6In  ",
" uRRkO,prwIRd ",
" lRR5=IRRRRRn ",
" VRJ*5w2rFRRF9",
" VRD@X;,X5RRF9",
" xRF@,IReonRV ",
" aRR;:RRaovRg ",
"  vRp.6y&>IZ  ",
"  9nIe&$2VZq  ",
"    fVVnVh    ",
"      99      "
};
