/* XPM */
static char *_[] = {
/* columns rows colors chars-per-pixel */
"14 14 61 1 ",
"  c None",
". c #1E1E1E",
"X c #1F1F1F",
"o c #212121",
"O c #232323",
"+ c #2C2C2C",
"@ c #323232",
"# c #424242",
"$ c #434343",
"% c #444444",
"& c #464646",
"* c #5B5B5B",
"= c #626262",
"- c #646464",
"; c #656565",
": c #7E7E7E",
"> c #7F7F7F",
", c #808080",
"< c #818181",
"1 c #898989",
"2 c #8A8A8A",
"3 c #919191",
"4 c #939393",
"5 c #949494",
"6 c #9A9A9A",
"7 c #9C9C9C",
"8 c #A3A3A3",
"9 c #AAAAAA",
"0 c #ABABAB",
"q c #ACACAC",
"w c #B2B2B2",
"e c #B3B3B3",
"r c #BBBBBB",
"t c #C3C3C3",
"y c #C7C7C7",
"u c #D3D3D3",
"i c #D5D5D5",
"p c #D9D9D9",
"a c #DCDCDC",
"s c #DDDDDD",
"d c #DEDEDE",
"f c #E1E1E1",
"g c #E2E2E2",
"h c #E5E5E5",
"j c #E6E6E6",
"k c #E7E7E7",
"l c #E8E8E8",
"z c #E9E9E9",
"x c #EAEAEA",
"c c #EFEFEF",
"v c #F1F1F1",
"b c #F2F2F2",
"n c #F3F3F3",
"m c #F5F5F5",
"M c #F7F7F7",
"N c #F9F9F9",
"B c #FAFAFA",
"V c #FBFBFB",
"C c #FDFDFD",
"Z c #FEFEFE",
"A c #FFFFFF",
/* pixels */
"              ",
"    0iklpw    ",
"   uMNNNNNd<  ",
"  iv=#%%#;vf  ",
" 0AMq675X*NAr ",
" iAAAAAyXrAAf ",
" kAAAAA;%MAAv<",
" lAAAAio8AAAv<",
" pAAAA>@lAAAk ",
" wAAAk+2AAAAt ",
"  dAA5odAAAl  ",
"  <fA>2AAAl3  ",
"    rdcvkt    ",
"      <<      "
};
