/* XPM */
static char *_[] = {
/* columns rows colors chars-per-pixel */
"14 14 75 1 ",
"  c None",
". c #0B0B0B",
"X c #151515",
"o c #1B1B1B",
"O c #1F1F1F",
"+ c #242424",
"@ c #252525",
"# c #2A2A2A",
"$ c #2C2C2C",
"% c #323232",
"& c #333333",
"* c #353535",
"= c #383838",
"- c #3F3F3F",
"; c #444444",
": c #4D4D4D",
"> c #505050",
", c #525252",
"< c #545454",
"1 c #5A5A5A",
"2 c #5C5C5C",
"3 c #636363",
"4 c #6A6A6A",
"5 c #6D6D6D",
"6 c #747474",
"7 c #7A7A7A",
"8 c #7C7C7C",
"9 c #808080",
"0 c #818181",
"q c #828282",
"w c #838383",
"e c #858585",
"r c #8F8F8F",
"t c #919191",
"y c #959595",
"u c #999999",
"i c #A1A1A1",
"p c #A4A4A4",
"a c #A7A7A7",
"s c #A8A8A8",
"d c #AAAAAA",
"f c #B2B2B2",
"g c #B4B4B4",
"h c #B7B7B7",
"j c #BBBBBB",
"k c #BEBEBE",
"l c #C3C3C3",
"z c #C5C5C5",
"x c #D4D4D4",
"c c #D5D5D5",
"v c #D6D6D6",
"b c #D9D9D9",
"n c #DADADA",
"m c #DBDBDB",
"M c #DDDDDD",
"N c #DEDEDE",
"B c #DFDFDF",
"V c #E0E0E0",
"C c #E1E1E1",
"Z c #E2E2E2",
"A c #E3E3E3",
"S c #E6E6E6",
"D c #E7E7E7",
"F c #E8E8E8",
"G c #E9E9E9",
"H c #EAEAEA",
"J c #EBEBEB",
"K c #EEEEEE",
"L c #EFEFEF",
"P c #F1F1F1",
"I c #F2F2F2",
"U c #F4F4F4",
"Y c #F8F8F8",
"T c #FDFDFD",
"R c #FFFFFF",
/* pixels */
"              ",
"    dxGGmf    ",
"   xRRLLRRB0  ",
"  xRG6*&5DRZ  ",
" dRRe#di+7RRj ",
" xRR1<RR22RRZ ",
" DRRpO8r&hRRI0",
" GRRm&X.-ZRRI0",
" mRY1:xh=>URD ",
" fRD+yRRpomRl ",
"  BY>$up;;IG  ",
"  0ZB4**3xGt  ",
"    kZZZDz    ",
"      00      "
};
