/* XPM */
static char *_[] = {
/* columns rows colors chars-per-pixel */
"14 14 70 1 ",
"  c None",
". c #1B1B1B",
"X c #1C1C1C",
"o c #212121",
"O c #262626",
"+ c #282828",
"@ c #2C2C2C",
"# c #2E2E2E",
"$ c #323232",
"% c #343434",
"& c #363636",
"* c #3A3A3A",
"= c #3B3B3B",
"- c #444444",
"; c #515151",
": c #565656",
"> c #5B5B5B",
", c #5F5F5F",
"< c #656565",
"1 c #696969",
"2 c #6B6B6B",
"3 c #6C6C6C",
"4 c #747474",
"5 c #7E7E7E",
"6 c #808080",
"7 c #818181",
"8 c #828282",
"9 c #838383",
"0 c #888888",
"q c #8A8A8A",
"w c #8C8C8C",
"e c #909090",
"r c #919191",
"t c #949494",
"y c #9A9A9A",
"u c #9C9C9C",
"i c #A2A2A2",
"p c #A6A6A6",
"a c #A7A7A7",
"s c #AAAAAA",
"d c #ABABAB",
"f c #B2B2B2",
"g c #BBBBBB",
"h c #BCBCBC",
"j c #C3C3C3",
"k c #CBCBCB",
"l c #D4D4D4",
"z c #D5D5D5",
"x c #D9D9D9",
"c c #DCDCDC",
"v c #DEDEDE",
"b c #E0E0E0",
"n c #E2E2E2",
"m c #E5E5E5",
"M c #E6E6E6",
"N c #E7E7E7",
"B c #E8E8E8",
"V c #E9E9E9",
"C c #ECECEC",
"Z c #EEEEEE",
"A c #EFEFEF",
"S c #F1F1F1",
"D c #F2F2F2",
"F c #F5F5F5",
"G c #F7F7F7",
"H c #F9F9F9",
"J c #FBFBFB",
"K c #FCFCFC",
"L c #FEFEFE",
"P c #FFFFFF",
/* pixels */
"              ",
"    slVVxf    ",
"   lPPZSPPv9  ",
"  lPm2$&wFPb  ",
" sPP2*sq.uPPg ",
" lPV@iPP2-FPb ",
" mPZ@qPH2OVPS9",
" VPP9X>;oOmPS9",
" xPPFp4y5&ZPm ",
" fPPPPPH;<PPj ",
"  vPytp,+kPV  ",
"  9ve*$:jPVe  ",
"    glbZVj    ",
"      99      "
};
