/* XPM */
static char *focused[] = {
/* columns rows colors chars-per-pixel */
"14 14 31 1 ",
"  c None",
". c #7E7E7E",
"X c #7F7F7F",
"o c #808080",
"O c #8A8A8A",
"+ c #8C8C8C",
"@ c #8D8D8D",
"# c #8E8E8E",
"$ c #909090",
"% c #979797",
"& c #989898",
"* c #999999",
"= c #A0A0A0",
"- c #A1A1A1",
"; c #A6A6A6",
": c #AEAEAE",
"> c #B4B4B4",
", c #B5B5B5",
"< c #D8D8D8",
"1 c #E1E1E1",
"2 c #E4E4E4",
"3 c #EBEBEB",
"4 c #EDEDED",
"5 c #EEEEEE",
"6 c #F6F6F6",
"7 c #F7F7F7",
"8 c #F9F9F9",
"9 c #FBFBFB",
"0 c #FDFDFD",
"q c #FEFEFE",
"w c #FFFFFF",
/* pixels */
"              ",
"    wwwwww    ",
"   www77www   ",
"  ww3>&%:2ww  ",
" ww3&....$1ww ",
" ww>.oooo.;9w ",
" w7&.oooo.+4w ",
" w7%.oooo.+4w ",
" ww:.oooo.-9w ",
" ww2$....O<ww ",
"  ww1;++-<ww  ",
"   ww9449www  ",
"    wwwwww    ",
"              "
};
